public/luts/clean-broadcast.cube
TITLE "Clean Broadcast"
LUT_3D_SIZE 3
DOMAIN_MIN 0.0 0.0 0.0
DOMAIN_MAX 1.0 1.0 1.0

0.000 0.000 0.000
0.340 0.330 0.330
0.940 0.920 0.910
0.000 0.360 0.000
0.340 0.360 0.330
0.940 0.930 0.910
0.020 0.960 0.020
0.360 0.960 0.350
0.960 0.980 0.950
0.000 0.000 0.360
0.330 0.320 0.360
0.920 0.900 0.930
0.000 0.360 0.360
0.340 0.350 0.360
0.930 0.920 0.930
0.020 0.960 0.370
0.350 0.960 0.370
0.960 0.980 0.970
0.020 0.030 0.970
0.350 0.340 0.970
0.940 0.920 0.980
0.030 0.370 0.980
0.360 0.360 0.980
0.950 0.930 0.990
0.060 0.980 1.000
0.380 0.980 1.000
0.970 1.000 1.000
