public/luts/copper-noir.cube
TITLE "Copper Noir"
LUT_3D_SIZE 3
DOMAIN_MIN 0.0 0.0 0.0
DOMAIN_MAX 1.0 1.0 1.0

0.000 0.000 0.020
0.300 0.180 0.180
0.880 0.700 0.620
0.000 0.240 0.100
0.320 0.280 0.220
0.900 0.760 0.650
0.060 0.720 0.280
0.400 0.800 0.380
0.980 0.960 0.760
0.000 0.020 0.300
0.220 0.180 0.360
0.780 0.620 0.700
0.000 0.260 0.340
0.260 0.260 0.400
0.820 0.680 0.760
0.080 0.760 0.440
0.360 0.820 0.520
0.920 0.980 0.860
0.020 0.100 0.700
0.240 0.200 0.760
0.760 0.620 0.920
0.040 0.320 0.760
0.280 0.320 0.820
0.820 0.720 0.960
0.140 0.860 0.900
0.440 0.900 0.960
0.960 1.000 1.000
