public/luts/documentary-warm.cube
TITLE "Documentary Warm"
LUT_3D_SIZE 3
DOMAIN_MIN 0.0 0.0 0.0
DOMAIN_MAX 1.0 1.0 1.0

0.020 0.000 0.000
0.420 0.280 0.240
1.000 0.920 0.860
0.060 0.360 0.020
0.440 0.390 0.280
1.000 0.940 0.870
0.140 0.960 0.200
0.500 0.990 0.420
1.000 1.000 0.930
0.050 0.020 0.320
0.420 0.300 0.430
0.980 0.900 0.930
0.070 0.380 0.360
0.450 0.420 0.450
1.000 0.940 0.940
0.180 0.960 0.460
0.540 1.000 0.560
1.000 1.000 0.970
0.140 0.100 0.760
0.480 0.360 0.820
0.980 0.900 0.980
0.180 0.460 0.800
0.520 0.520 0.860
1.000 0.950 1.000
0.260 1.000 0.920
0.620 1.000 0.960
1.000 1.000 1.000
