public/luts/mint-glow.cube
TITLE "Mint Glow"
LUT_3D_SIZE 3
DOMAIN_MIN 0.0 0.0 0.0
DOMAIN_MAX 1.0 1.0 1.0

0.000 0.020 0.040
0.320 0.360 0.420
0.900 0.980 1.000
0.000 0.380 0.120
0.340 0.500 0.440
0.920 1.000 0.980
0.080 0.980 0.320
0.420 1.000 0.520
0.980 1.000 0.900
0.000 0.060 0.420
0.320 0.380 0.520
0.880 0.980 1.000
0.000 0.420 0.520
0.340 0.520 0.580
0.920 1.000 1.000
0.120 0.980 0.660
0.460 1.000 0.740
1.000 1.000 0.980
0.060 0.180 0.860
0.360 0.420 0.900
0.900 0.980 1.000
0.100 0.520 0.920
0.420 0.620 0.960
0.960 1.000 1.000
0.220 1.000 1.000
0.560 1.000 1.000
1.000 1.000 1.000
