public/luts/neutral-contrast.cube
TITLE "Neutral Contrast"
LUT_3D_SIZE 3
DOMAIN_MIN 0.0 0.0 0.0
DOMAIN_MAX 1.0 1.0 1.0

0.000 0.000 0.000
0.380 0.000 0.000
1.000 0.000 0.000
0.000 0.380 0.000
0.380 0.380 0.000
1.000 0.380 0.000
0.000 1.000 0.000
0.380 1.000 0.000
1.000 1.000 0.000
0.000 0.000 0.380
0.380 0.000 0.380
1.000 0.000 0.380
0.000 0.380 0.380
0.380 0.380 0.380
1.000 0.380 0.380
0.000 1.000 0.380
0.380 1.000 0.380
1.000 1.000 0.380
0.000 0.000 1.000
0.380 0.000 1.000
1.000 0.000 1.000
0.000 0.380 1.000
0.380 0.380 1.000
1.000 0.380 1.000
0.000 1.000 1.000
0.380 1.000 1.000
1.000 1.000 1.000
