public/luts/teal-gold.cube
TITLE "Teal Gold"
LUT_3D_SIZE 3
DOMAIN_MIN 0.0 0.0 0.0
DOMAIN_MAX 1.0 1.0 1.0

0.000 0.040 0.120
0.360 0.060 0.180
0.960 0.120 0.220
0.000 0.420 0.220
0.360 0.420 0.260
0.960 0.460 0.280
0.080 0.980 0.360
0.420 0.980 0.380
1.000 1.000 0.420
0.000 0.100 0.460
0.340 0.120 0.500
0.900 0.160 0.520
0.000 0.420 0.520
0.340 0.420 0.540
0.900 0.460 0.560
0.100 0.980 0.620
0.460 0.980 0.660
1.000 1.000 0.700
0.080 0.180 0.820
0.420 0.200 0.840
0.920 0.240 0.860
0.120 0.520 0.900
0.460 0.560 0.920
0.920 0.600 0.940
0.220 1.000 1.000
0.560 1.000 1.000
1.000 1.000 1.000
